X: 09075
T: MARTHA'S MARCH
C: Bob McQuillen March 92
B: Bob's Note Book 9 #75
R: march, polka
Z: 2018 John Chambers <jc:trillian.mit.edu>
M: C
P: (Try this as a polka)
L: 1/8
K: D
FG \
| A2d2 d2FG | A2d2 cBAG | F2A2 B2AG | FAFD E2FG |
| A2d2 d2FG | A2d2 cBAG | FGAB cdec | d2f2 d2 :|
|: FG \
| A2d2 f2d2 | edef edB2 | A2d2 A2de | fagf e2FG |
| A2de f2d2 | edef edB2 | A2Bc dBAG | F2D2 D2 :|
%%begintext align
%% A good friend of
%% Sarah Ba_____, Martha Harrah was living in
%% Portsmouth, NH, when this tune came along. She's
%% moved to Seattle now, staying at Helen Bommanito's
%% (Hi Helen!) and I hope somebody out there will
%% play this for her. I hope I see you at the
%% Folklife Festival, Martha!
%%endtext

%%sep 1 1 500

%%sep 1 1 500

